flaticon/transport/crane-3.svg

<svg xmlns="http://www.w3.org/2000/svg" width="32" height="32" viewBox="0 0 24 24">
    <path d="M4.203125 17.882812C3.742188 17.882812 3.363281 18.261719 3.363281 18.726562 3.363281 19.1875 3.742188 19.566406 4.203125 19.566406 4.664062 19.566406 5.042969 19.1875 5.042969 18.726562 5.042969 18.261719 4.664062 17.882812 4.203125 17.882812zM18.914062 17.882812C18.453125 17.882812 18.074219 18.261719 18.074219 18.726562 18.074219 19.1875 18.453125 19.566406 18.914062 19.566406 19.375 19.566406 19.753906 19.1875 19.753906 18.726562 19.753906 18.261719 19.375 17.882812 18.914062 17.882812zM18.914062 17.882812"/>
    <path d="M 23.621094 11.035156 L 19.964844 7 C 19.671875 6.703125 19.292969 6.535156 18.914062 6.535156 L 15.046875 6.535156 C 14.375 6.535156 13.871094 7.082031 13.871094 7.710938 L 13.871094 11.023438 L 4.917969 2.457031 C 4.832031 2.375 4.75 2.332031 4.625 2.332031 L 1.679688 2.332031 C 1.441406 2.332031 1.28125 2.484375 1.261719 2.714844 C 1.257812 2.742188 1.257812 2.765625 1.261719 2.792969 L 1.261719 6.117188 C 1.261719 6.367188 1.429688 6.535156 1.679688 6.535156 C 2.144531 6.535156 2.523438 6.914062 2.523438 7.375 C 2.523438 7.839844 2.144531 8.21875 1.679688 8.21875 C 1.21875 8.21875 0.839844 7.839844 0.839844 7.375 C 0.839844 7.125 0.671875 6.957031 0.421875 6.957031 C 0.167969 6.957031 0 7.125 0 7.375 C 0 8.300781 0.757812 9.058594 1.679688 9.058594 C 2.605469 9.058594 3.363281 8.300781 3.363281 7.375 C 3.363281 6.597656 2.824219 5.9375 2.101562 5.75 L 2.101562 3.789062 L 12.046875 14.101562 L 0 14.101562 L 0 18.136719 C 0 18.683594 0.460938 19.144531 1.007812 19.144531 L 1.289062 19.144531 C 1.492188 20.582031 2.707031 21.667969 4.203125 21.667969 C 5.699219 21.667969 6.914062 20.582031 7.117188 19.144531 L 16 19.144531 C 16.203125 20.582031 17.417969 21.667969 18.914062 21.667969 C 20.410156 21.667969 21.625 20.582031 21.828125 19.144531 L 22.949219 19.144531 C 23.496094 19.144531 23.957031 18.683594 24 18.179688 L 24 12 C 24 11.621094 23.875 11.285156 23.621094 11.035156 Z M 18.914062 7.375 C 19.082031 7.375 19.207031 7.417969 19.335938 7.542969 L 22.949219 11.578125 L 16.8125 11.578125 L 16.8125 7.375 Z M 2.691406 3.171875 L 4.457031 3.171875 L 13.871094 12.167969 L 13.871094 14.101562 L 13.199219 14.101562 Z M 4.203125 20.828125 C 3.027344 20.828125 2.101562 19.902344 2.101562 18.726562 C 2.101562 17.546875 3.027344 16.625 4.203125 16.625 C 5.378906 16.625 6.304688 17.546875 6.304688 18.726562 C 6.304688 19.902344 5.378906 20.828125 4.203125 20.828125 Z M 18.914062 20.828125 C 17.738281 20.828125 16.8125 19.902344 16.8125 18.726562 C 16.8125 17.546875 17.738281 16.625 18.914062 16.625 C 20.089844 16.625 21.015625 17.546875 21.015625 18.726562 C 21.015625 19.902344 20.089844 20.828125 18.914062 20.828125 Z M 22.949219 18.304688 L 21.828125 18.304688 C 21.625 16.867188 20.410156 15.78125 18.914062 15.78125 C 18.90625 15.78125 18.902344 15.785156 18.894531 15.785156 C 18.886719 15.785156 18.878906 15.78125 18.871094 15.78125 C 17.402344 15.78125 16.183594 16.875 15.972656 18.304688 L 7.117188 18.304688 C 6.925781 16.957031 5.847656 15.921875 4.480469 15.796875 C 4.46875 15.792969 4.460938 15.792969 4.449219 15.792969 C 4.414062 15.789062 4.378906 15.789062 4.34375 15.785156 C 4.296875 15.785156 4.25 15.78125 4.203125 15.78125 C 4.15625 15.78125 4.109375 15.785156 4.0625 15.785156 C 4.027344 15.789062 3.992188 15.789062 3.957031 15.792969 C 3.945312 15.792969 3.9375 15.792969 3.925781 15.796875 C 2.558594 15.921875 1.480469 16.957031 1.289062 18.304688 L 1.007812 18.304688 C 0.925781 18.304688 0.839844 18.21875 0.839844 18.136719 L 0.839844 14.941406 L 14.710938 14.941406 L 14.710938 7.710938 C 14.710938 7.503906 14.878906 7.375 15.046875 7.375 L 15.972656 7.375 L 15.972656 11.707031 C 15.972656 12.085938 16.308594 12.421875 16.6875 12.421875 L 23.117188 12.421875 L 23.117188 13.679688 L 21.015625 13.679688 C 20.761719 13.679688 20.59375 13.847656 20.59375 14.101562 C 20.59375 14.355469 20.761719 14.523438 21.015625 14.523438 L 23.117188 14.523438 L 23.117188 18.136719 C 23.117188 18.21875 23.035156 18.304688 22.949219 18.304688 Z M 22.949219 18.304688"/>
</svg>

<svg xmlns="http://www.w3.org/2000/svg" width="32" height="32" viewBox="0 0 24 24">
    <path d="M4.203 17.883c-.46 0-.84.379-.84.844 0 .46.38.84.84.84.461 0 .84-.38.84-.84a.844.844 0 0 0-.84-.844zm0 0M18.914 17.883c-.46 0-.84.379-.84.844 0 .46.38.84.84.84.461 0 .84-.38.84-.84a.844.844 0 0 0-.84-.844zm0 0"/>
    <path d="M23.621 11.035L19.965 7a1.493 1.493 0 0 0-1.05-.465h-3.868c-.672 0-1.176.547-1.176 1.176v3.312L4.918 2.457a.39.39 0 0 0-.293-.125H1.68a.397.397 0 0 0-.418.383.262.262 0 0 0 0 .078v3.324c0 .25.168.418.418.418.465 0 .843.38.843.84a.845.845 0 0 1-.843.844.844.844 0 0 1-.84-.844c0-.25-.168-.418-.418-.418-.254 0-.422.168-.422.418 0 .926.758 1.684 1.68 1.684.925 0 1.683-.758 1.683-1.684 0-.777-.539-1.438-1.261-1.625V3.79l9.945 10.312H0v4.035c0 .547.46 1.008 1.008 1.008h.281a2.925 2.925 0 0 0 2.914 2.523 2.925 2.925 0 0 0 2.914-2.523H16a2.925 2.925 0 0 0 2.914 2.523 2.925 2.925 0 0 0 2.914-2.523h1.121c.547 0 1.008-.461 1.051-.965V12c0-.379-.125-.715-.379-.965zm-4.707-3.66a.55.55 0 0 1 .422.168l3.613 4.035h-6.137V7.375zM2.691 3.172h1.766l9.414 8.996v1.934H13.2zm1.512 17.656a2.083 2.083 0 0 1-2.101-2.101 2.08 2.08 0 0 1 2.101-2.102 2.08 2.08 0 0 1 2.102 2.102 2.083 2.083 0 0 1-2.102 2.101zm14.711 0a2.083 2.083 0 0 1-2.102-2.101 2.08 2.08 0 0 1 2.102-2.102 2.08 2.08 0 0 1 2.102 2.102 2.083 2.083 0 0 1-2.102 2.101zm4.035-2.523h-1.12a2.925 2.925 0 0 0-2.915-2.524c-.008 0-.012.004-.02.004-.007 0-.015-.004-.023-.004-1.469 0-2.687 1.094-2.898 2.524H7.117a2.92 2.92 0 0 0-2.637-2.508c-.011-.004-.02-.004-.03-.004-.036-.004-.071-.004-.106-.008-.047 0-.094-.004-.14-.004-.048 0-.095.004-.141.004-.036.004-.07.004-.106.008-.012 0-.02 0-.031.004a2.92 2.92 0 0 0-2.637 2.508h-.281c-.082 0-.168-.086-.168-.168V14.94h13.87v-7.23c0-.207.169-.336.337-.336h.926v4.332c0 .379.336.715.714.715h6.43v1.258h-2.101c-.254 0-.422.168-.422.422 0 .253.168.421.422.421h2.101v3.614c0 .082-.082.168-.168.168zm0 0"/>
</svg>
